src/images/bridges/ibc.svg

<svg width="338" height="202" viewBox="0 0 338 202" fill="none" xmlns="http://www.w3.org/2000/svg">
<g clip-path="url(#clip0_689_5391)">
<path d="M25.9685 3.75977H0V198.467H25.9685V3.75977Z" fill="black"/>
<path d="M122.642 127.439H109.271C81.6502 127.439 59.1836 105.062 59.1836 77.5506V3.69934H136.028C163.649 3.69934 186.115 26.0767 186.115 53.5878V72.9H160.147V53.5878C160.147 40.3456 149.323 29.5646 136.028 29.5646H85.1521V77.5506C85.1521 90.7928 95.9761 101.574 109.271 101.574H122.642V127.439ZM188.708 148.412V125.174C188.708 97.663 166.241 75.2857 138.62 75.2857H122.642V101.151H138.62C151.915 101.151 162.739 111.932 162.739 125.174V148.412C162.739 161.654 151.915 172.435 138.62 172.435H85.1521V129.13H59.1836V198.301H138.62C166.241 198.301 188.708 175.923 188.708 148.412Z" fill="black"/>
<path d="M277.148 202H272.827C239.279 202 211.977 174.806 211.977 141.391V60.594C211.977 27.179 239.279 -0.0150146 272.827 -0.0150146H277.148C310.696 -0.0150146 337.999 27.179 337.999 60.594H312.03C312.03 41.448 296.386 25.8654 277.163 25.8654H272.843C253.62 25.8654 237.975 41.448 237.975 60.594V141.391C237.975 160.537 253.62 176.12 272.843 176.12H277.163C296.386 176.12 312.03 160.537 312.03 141.391H337.999C337.999 174.806 310.696 202 277.148 202Z" fill="black"/>
</g>
<defs>
<clipPath id="clip0_689_5391">
<rect width="338" height="202" fill="white"/>
</clipPath>
</defs>
</svg>

<svg xmlns="http://www.w3.org/2000/svg" width="338" height="202" fill="none"><g fill="#000" clip-path="url(#a)"><path d="M25.969 3.76H0v194.707h25.969zM122.642 127.439h-13.371c-27.62 0-50.087-22.377-50.087-49.888V3.699h76.844c27.621 0 50.087 22.378 50.087 49.889V72.9h-25.968V53.588c0-13.242-10.824-24.023-24.119-24.023H85.152V77.55c0 13.242 10.824 24.023 24.119 24.023h13.371zm66.066 20.973v-23.238c0-27.511-22.467-49.888-50.088-49.888h-15.978v25.865h15.978c13.295 0 24.119 10.781 24.119 24.023v23.238c0 13.242-10.824 24.023-24.119 24.023H85.152V129.13H59.184v69.171h79.436c27.621 0 50.088-22.378 50.088-49.889M277.148 202h-4.321c-33.548 0-60.85-27.194-60.85-60.609V60.594c0-33.415 27.302-60.609 60.85-60.609h4.321c33.548 0 60.851 27.194 60.851 60.609H312.03c0-19.146-15.644-34.729-34.867-34.729h-4.32c-19.223 0-34.868 15.583-34.868 34.729v80.797c0 19.146 15.645 34.729 34.868 34.729h4.32c19.223 0 34.867-15.583 34.867-34.729h25.969c0 33.415-27.303 60.609-60.851 60.609"/></g><defs><clipPath id="a"><path fill="#fff" d="M0 0h338v202H0z"/></clipPath></defs></svg>
